packages/core/src/svgs/tokens/branded/ETE.svg

<svg width="24" height="24" viewBox="0 0 24 24" fill="none" xmlns="http://www.w3.org/2000/svg">
<path d="M7.03144 11.6631C6.59988 11.8578 5.72619 12.2474 5.68408 12.2578L11.7367 2V3.06315L6.62093 11.721L7.14724 11.5105L11.7367 3.32631V11.421L10.0157 12.0632L6.98408 11.8526L7.03144 11.6684V11.6631Z" fill="#141414"/>
<path d="M11.7367 9.69476L6.9683 11.8526L11.7367 14.7158V14.2947L7.68408 11.9053L11.7367 10.0947V9.69476ZM11.7367 10.3895L8.28407 11.9421L11.7367 13.9737V13.5369L9.18934 12.0105L11.7367 10.8631V10.3895ZM11.7367 11.1737L9.83149 12.0158L11.7367 13.1736V11.1737ZM5.68408 12.3999L11.7367 16.0369V14.9842L6.67356 11.9316L5.68408 12.3999Z" fill="#0FABFF"/>
<path d="M16.9686 11.6736C17.4002 11.8631 18.274 12.2525 18.316 12.2631L12.2634 2V3.06315L17.3792 11.7263L16.8528 11.5157L12.2634 3.32631V11.421L13.9844 12.0683L17.016 11.8578L16.9686 11.6736Z" fill="#393939"/>
<path d="M12.2634 9.69476L17.0318 11.8422L12.2634 14.6947V14.2737L16.3161 11.8947L12.2634 10.0947V9.69476ZM12.2634 10.3842L15.716 11.9316L12.2634 13.9526V13.5211L14.8108 12L12.2634 10.8526V10.3789V10.3842ZM12.2634 13.1579V11.1684L14.1687 12.0105L12.2634 13.1579ZM18.316 12.3842L12.2634 16.0157V14.9632L17.3265 11.9263L18.316 12.3842Z" fill="#10ACF9"/>
<path d="M11.963 17.1578C11.8894 17.1578 7.74724 14.7737 5.68408 13.5789L11.963 22L18.3156 13.5789C16.2114 14.7955 14.0939 15.9886 11.963 17.1578Z" fill="#8C8C8C"/>
</svg>

<svg xmlns="http://www.w3.org/2000/svg" width="24" height="24" fill="none" viewBox="0 0 24 24">
    <path fill="#141414" d="M7.031 11.663c-.431.195-1.305.584-1.347.595L11.737 2v1.063L6.62 11.721l.526-.21 4.59-8.185v8.095l-1.721.642-3.032-.21.047-.185z"/>
    <path fill="#0FABFF" d="m11.737 9.695-4.769 2.158 4.769 2.863v-.421l-4.053-2.39 4.053-1.81zm0 .694-3.453 1.553 3.453 2.032v-.437L9.189 12.01l2.548-1.147zm0 .785-1.906.842 1.906 1.158zM5.684 12.4l6.053 3.637v-1.053l-5.063-3.052z"/>
    <path fill="#393939" d="M16.969 11.674c.431.19 1.305.579 1.347.59L12.263 2v1.063l5.116 8.663-.526-.21-4.59-8.19v8.095l1.721.647 3.032-.21z"/>
    <path fill="#10ACF9" d="m12.263 9.695 4.769 2.147-4.769 2.853v-.421l4.053-2.38-4.053-1.8zm0 .69 3.453 1.547-3.453 2.02v-.43L14.811 12l-2.548-1.147v-.474zm0 2.773v-1.99l1.906.843zm6.053-.774-6.053 3.632v-1.053l5.063-3.037z"/>
    <path fill="#8C8C8C" d="M11.963 17.158c-.074 0-4.216-2.384-6.279-3.58L11.963 22l6.353-8.421a326 326 0 0 1-6.353 3.579"/>
</svg>
